Pods/ProtonCore-UIFoundations/libraries/UIFoundations/Sources/Assets.xcassets/Images/IconSet/ic-life-ring.imageset/ic-life-ring.svg

<svg width="24" height="24" viewBox="0 0 24 24" fill="none" xmlns="http://www.w3.org/2000/svg">
<path fill-rule="evenodd" clip-rule="evenodd" d="M17.8116 18.8723C16.2436 20.1996 14.2153 21 12 21C9.78472 21 7.75638 20.1996 6.18837 18.8723L9.3926 15.6681C10.1282 16.1919 11.0281 16.5 12 16.5C12.9719 16.5 13.8718 16.1919 14.6074 15.6681L17.8116 18.8723ZM9.89437 14.1369C9.88933 14.1316 9.88419 14.1263 9.87896 14.121C9.87373 14.1158 9.86844 14.1107 9.8631 14.1056C9.32937 13.564 9 12.8205 9 12C9 10.3431 10.3431 9 12 9C13.6569 9 15 10.3431 15 12C15 12.8205 14.6706 13.564 14.1369 14.1056L14.121 14.121L14.1056 14.1369C13.564 14.6706 12.8205 15 12 15C11.1795 15 10.436 14.6706 9.89437 14.1369ZM8.33194 14.6074L5.12771 17.8116C3.80037 16.2436 3 14.2153 3 12C3 9.78491 3.80023 7.75672 5.12737 6.18877L8.33163 9.39303C7.80797 10.1286 7.5 11.0283 7.5 12C7.5 12.9719 7.80809 13.8718 8.33194 14.6074ZM18.8723 17.8116C20.1996 16.2436 21 14.2153 21 12C21 9.78491 20.1998 7.75672 18.8726 6.18877L15.6684 9.39303C16.192 10.1286 16.5 11.0283 16.5 12C16.5 12.9719 16.1919 13.8718 15.6681 14.6074L18.8723 17.8116ZM14.6078 8.33224L17.812 5.12804C16.244 3.8005 14.2155 3 12 3C9.78454 3 7.75604 3.8005 6.18797 5.12805L9.39217 8.33224C10.1279 7.80821 11.0279 7.5 12 7.5C12.9721 7.5 13.8721 7.80821 14.6078 8.33224ZM12 1.5C14.8892 1.5 17.5059 2.66696 19.4044 4.55526C19.4115 4.56181 19.4185 4.56851 19.4254 4.57538C19.4322 4.58227 19.439 4.58926 19.4455 4.59635C21.3334 6.49479 22.5 9.11116 22.5 12C22.5 17.799 17.799 22.5 12 22.5C6.20101 22.5 1.5 17.799 1.5 12C1.5 9.11115 2.66664 6.49479 4.55448 4.59634C4.56104 4.58926 4.56776 4.58227 4.57465 4.57538C4.58152 4.56852 4.58849 4.56181 4.59555 4.55526C6.49406 2.66696 9.11075 1.5 12 1.5Z" fill="#0C0C14"/>
</svg>

<svg xmlns="http://www.w3.org/2000/svg" width="24" height="24" viewBox="0 0 24 24">
  <g class="ic-life-ring">
    <path fill-rule="evenodd" d="M17.812 18.872A8.964 8.964 0 0 1 12 21c-2.215 0-4.244-.8-5.812-2.128l3.205-3.204A4.48 4.48 0 0 0 12 16.5a4.48 4.48 0 0 0 2.607-.832l3.205 3.204Zm-7.918-4.735a1.198 1.198 0 0 0-.03-.031 3 3 0 1 1 4.274 0l-.017.015-.015.016A2.99 2.99 0 0 1 12 15a2.99 2.99 0 0 1-2.106-.863Zm-1.562.47-3.204 3.205A8.964 8.964 0 0 1 3 12c0-2.215.8-4.243 2.127-5.811l3.205 3.204A4.48 4.48 0 0 0 7.5 12c0 .972.308 1.872.832 2.607Zm10.54 3.205A8.964 8.964 0 0 0 21 12c0-2.215-.8-4.243-2.127-5.811l-3.205 3.204A4.48 4.48 0 0 1 16.5 12a4.48 4.48 0 0 1-.832 2.607l3.204 3.205Zm-4.264-9.48 3.204-3.204A8.964 8.964 0 0 0 12 3c-2.215 0-4.244.8-5.812 2.128l3.204 3.204A4.48 4.48 0 0 1 12 7.5a4.48 4.48 0 0 1 2.608.832ZM12 1.5a10.467 10.467 0 0 1 7.445 3.096A10.467 10.467 0 0 1 22.5 12c0 5.799-4.701 10.5-10.5 10.5S1.5 17.799 1.5 12a10.467 10.467 0 0 1 3.096-7.445A10.467 10.467 0 0 1 12 1.5Z" class="Icon"/>
  </g>
</svg>
